pix_core/i/competencies.svg

<svg preserveAspectRatio="xMinYMid meet" viewBox="0 0 640 512" xmlns="http://www.w3.org/2000/svg"><path d="m96 128a128 128 0 1 1 256 0 128 128 0 1 1 -256 0zm-96 354.3c0-98.5 79.8-178.3 178.3-178.3h91.4c98.5 0 178.3 79.8 178.3 178.3 0 16.4-13.3 29.7-29.7 29.7h-388.6c-16.4 0-29.7-13.3-29.7-29.7zm625-305.3-128 128c-9.4 9.4-24.6 9.4-33.9 0l-64-64c-9.4-9.4-9.4-24.6 0-33.9s24.6-9.4 33.9 0l47 47 111-111.1c9.4-9.4 24.6-9.4 33.9 0s9.4 24.6 0 33.9z" fill="#fff"/></svg>

<svg xmlns="http://www.w3.org/2000/svg" viewBox="0 0 640 512" preserveAspectRatio="xMinYMid meet"><!--!Font Awesome Free 6.5.2 by @fontawesome - https://fontawesome.com License - https://fontawesome.com/license/free Copyright 2024 Fonticons, Inc.--><path fill="#fff" d="M96 128a128 128 0 1 1 256 0A128 128 0 1 1 96 128zM0 482.3C0 383.8 79.8 304 178.3 304h91.4C368.2 304 448 383.8 448 482.3c0 16.4-13.3 29.7-29.7 29.7H29.7C13.3 512 0 498.7 0 482.3zM625 177L497 305c-9.4 9.4-24.6 9.4-33.9 0l-64-64c-9.4-9.4-9.4-24.6 0-33.9s24.6-9.4 33.9 0l47 47L591 143c9.4-9.4 24.6-9.4 33.9 0s9.4 24.6 0 33.9z"/></svg>
